%
(bores and slot hang)
(T1 D=0.125 CR=0 - ZMIN=-0.17 - flat end mill)
G90
G17
G20
G28 G91 Z0
G90

(Bore1)
T1 M6
S12000 M3
G17 G90
G54
M7
G0 X1.1863 Y3.6278
Z0.6
G0 Z0.08
G1 Z0.0125 F24
G18 G3 X1.1738 Z0 I-0.0125 K0
G1 X1.1675
G17 G3 X1.155 Y3.6153 I0 J-0.0125
X1.2072 Z-0.0031 I0.0261 J0
X1.155 Z-0.0062 I-0.0261 J0
X1.2072 Z-0.0093 I0.0261 J0
X1.155 Z-0.0124 I-0.0261 J0
X1.2072 Z-0.0155 I0.0261 J0
X1.155 Z-0.0186 I-0.0261 J0
X1.2072 Z-0.0217 I0.0261 J0
X1.155 Z-0.0247 I-0.0261 J0
X1.2072 Z-0.0278 I0.0261 J0
X1.155 Z-0.0309 I-0.0261 J0
X1.2072 Z-0.034 I0.0261 J0
X1.155 Z-0.0371 I-0.0261 J0
X1.2072 Z-0.0402 I0.0261 J0
X1.155 Z-0.0433 I-0.0261 J0
X1.2072 Z-0.0464 I0.0261 J0
X1.155 Z-0.0495 I-0.0261 J0
X1.2072 Z-0.0526 I0.0261 J0
X1.155 Z-0.0557 I-0.0261 J0
X1.2072 Z-0.0588 I0.0261 J0
X1.155 Z-0.0619 I-0.0261 J0
X1.2072 Z-0.065 I0.0261 J0
X1.155 Z-0.0681 I-0.0261 J0
X1.2072 Z-0.0711 I0.0261 J0
X1.155 Z-0.0742 I-0.0261 J0
X1.2072 Z-0.0773 I0.0261 J0
X1.155 Z-0.0804 I-0.0261 J0
X1.2072 Z-0.0835 I0.0261 J0
X1.155 Z-0.0866 I-0.0261 J0
X1.2072 Z-0.0897 I0.0261 J0
X1.155 Z-0.0928 I-0.0261 J0
X1.2072 Z-0.0959 I0.0261 J0
X1.155 Z-0.099 I-0.0261 J0
X1.2072 Z-0.1021 I0.0261 J0
X1.155 Z-0.1052 I-0.0261 J0
X1.2072 Z-0.1083 I0.0261 J0
X1.155 Z-0.1114 I-0.0261 J0
X1.2072 Z-0.1145 I0.0261 J0
X1.155 Z-0.1175 I-0.0261 J0
X1.2072 Z-0.1206 I0.0261 J0
X1.155 Z-0.1237 I-0.0261 J0
X1.2072 Z-0.1268 I0.0261 J0
X1.155 Z-0.1299 I-0.0261 J0
X1.2072 Z-0.133 I0.0261 J0
X1.155 Z-0.1361 I-0.0261 J0
X1.2072 Z-0.1392 I0.0261 J0
X1.155 Z-0.1423 I-0.0261 J0
X1.2072 Z-0.1454 I0.0261 J0
X1.155 Z-0.1485 I-0.0261 J0
X1.2072 Z-0.1516 I0.0261 J0
X1.155 Z-0.1547 I-0.0261 J0
X1.2072 Z-0.1578 I0.0261 J0
X1.155 Z-0.1609 I-0.0261 J0
X1.2072 Z-0.1639 I0.0261 J0
X1.155 Z-0.167 I-0.0261 J0
X1.207 Y3.6118 Z-0.17 I0.0261 J0
X1.1552 Y3.6189 I-0.0259 J0.0035
X1.207 Y3.6117 I0.0259 J-0.0036
X1.1963 Y3.6259 I-0.0124 J0.0018
G1 X1.1901 Y3.6267
X1.1873 Y3.6271 Z-0.1697
X1.1847 Y3.6275 Z-0.1688
X1.1824 Y3.6278 Z-0.1673
X1.1804 Y3.6281 Z-0.1653
X1.1789 Y3.6283 Z-0.1629
X1.178 Y3.6284 Z-0.1603
X1.1777 Z-0.1575
G0 Z0.2
X0.731 Y0.7514
Z0.08
G1 Z0.0125 F24
Y0.7511 Z0.0097
Y0.7501 Z0.0071
Y0.7486 Z0.0047
Y0.7467 Z0.0027
Y0.7443 Z0.0012
Y0.7417 Z0.0003
Y0.7389 Z0
X0.7311 Y0.7326
G3 X0.7398 Y0.724 I0.0086 J0
X0.7397 Y0.7586 Z-0.0028 I-0.0001 J0.0173
X0.7398 Y0.724 Z-0.0056 I0 J-0.0173
X0.7397 Y0.7586 Z-0.0084 I-0.0001 J0.0173
X0.7398 Y0.724 Z-0.0112 I0 J-0.0173
X0.7397 Y0.7586 Z-0.0139 I-0.0001 J0.0173
X0.7398 Y0.724 Z-0.0167 I0 J-0.0173
X0.7397 Y0.7586 Z-0.0195 I-0.0001 J0.0173
X0.7398 Y0.724 Z-0.0223 I0 J-0.0173
X0.7397 Y0.7586 Z-0.0251 I-0.0001 J0.0173
X0.7398 Y0.724 Z-0.0279 I0 J-0.0173
X0.7397 Y0.7586 Z-0.0307 I-0.0001 J0.0173
X0.7398 Y0.724 Z-0.0335 I0 J-0.0173
X0.7397 Y0.7586 Z-0.0362 I-0.0001 J0.0173
X0.7398 Y0.724 Z-0.039 I0 J-0.0173
X0.7397 Y0.7586 Z-0.0418 I-0.0001 J0.0173
X0.7398 Y0.724 Z-0.0446 I0 J-0.0173
X0.7397 Y0.7586 Z-0.0474 I-0.0001 J0.0173
X0.7398 Y0.724 Z-0.0502 I0 J-0.0173
X0.7397 Y0.7586 Z-0.053 I-0.0001 J0.0173
X0.7398 Y0.724 Z-0.0558 I0 J-0.0173
X0.7397 Y0.7586 Z-0.0586 I-0.0001 J0.0173
X0.7398 Y0.724 Z-0.0613 I0 J-0.0173
X0.7397 Y0.7586 Z-0.0641 I-0.0001 J0.0173
X0.7398 Y0.724 Z-0.0669 I0 J-0.0173
X0.7397 Y0.7586 Z-0.0697 I-0.0001 J0.0173
X0.7398 Y0.724 Z-0.0725 I0 J-0.0173
X0.7397 Y0.7586 Z-0.0753 I-0.0001 J0.0173
X0.7398 Y0.724 Z-0.0781 I0 J-0.0173
X0.7397 Y0.7586 Z-0.0809 I-0.0001 J0.0173
X0.7398 Y0.724 Z-0.0836 I0 J-0.0173
X0.7397 Y0.7586 Z-0.0864 I-0.0001 J0.0173
X0.7398 Y0.724 Z-0.0892 I0 J-0.0173
X0.7397 Y0.7586 Z-0.092 I-0.0001 J0.0173
X0.7398 Y0.724 Z-0.0948 I0 J-0.0173
X0.7397 Y0.7586 Z-0.0976 I-0.0001 J0.0173
X0.7398 Y0.724 Z-0.1004 I0 J-0.0173
X0.7397 Y0.7586 Z-0.1032 I-0.0001 J0.0173
X0.7398 Y0.724 Z-0.106 I0 J-0.0173
X0.7397 Y0.7586 Z-0.1087 I-0.0001 J0.0173
X0.7398 Y0.724 Z-0.1115 I0 J-0.0173
X0.7397 Y0.7586 Z-0.1143 I-0.0001 J0.0173
X0.7398 Y0.724 Z-0.1171 I0 J-0.0173
X0.7397 Y0.7586 Z-0.1199 I-0.0001 J0.0173
X0.7398 Y0.724 Z-0.1227 I0 J-0.0173
X0.7397 Y0.7586 Z-0.1255 I-0.0001 J0.0173
X0.7398 Y0.724 Z-0.1283 I0 J-0.0173
X0.7397 Y0.7586 Z-0.131 I-0.0001 J0.0173
X0.7398 Y0.724 Z-0.1338 I0 J-0.0173
X0.7397 Y0.7586 Z-0.1366 I-0.0001 J0.0173
X0.7398 Y0.724 Z-0.1394 I0 J-0.0173
X0.7397 Y0.7586 Z-0.1422 I-0.0001 J0.0173
X0.7398 Y0.724 Z-0.145 I0 J-0.0173
X0.7397 Y0.7586 Z-0.1478 I-0.0001 J0.0173
X0.7398 Y0.724 Z-0.1506 I0 J-0.0173
X0.7397 Y0.7586 Z-0.1533 I-0.0001 J0.0173
X0.7398 Y0.724 Z-0.1561 I0 J-0.0173
X0.7397 Y0.7586 Z-0.1589 I-0.0001 J0.0173
X0.7398 Y0.724 Z-0.1617 I0 J-0.0173
X0.7397 Y0.7586 Z-0.1645 I-0.0001 J0.0173
X0.7398 Y0.724 Z-0.1673 I0 J-0.0173
X0.7412 Y0.7585 Z-0.17 I-0.0001 J0.0173
X0.7382 Y0.7241 I-0.0015 J-0.0172
X0.7412 Y0.7585 I0.0015 J0.0172
X0.7319 Y0.7507 I-0.0008 J-0.0085
G1 X0.7313 Y0.7445
X0.731 Y0.7417 Z-0.1697
X0.7308 Y0.7391 Z-0.1688
X0.7306 Y0.7367 Z-0.1673
X0.7305 Y0.7347 Z-0.1653
X0.7303 Y0.7332 Z-0.1629
X0.7302 Y0.7323 Z-0.1603
Y0.732 Z-0.1575
G0 Z0.2
X0.1865 Y0.7498
Z0.08
G1 Z0.0125 F24
Y0.7495 Z0.0097
Y0.7485 Z0.0071
X0.1866 Y0.747 Z0.0047
Y0.7451 Z0.0027
Y0.7427 Z0.0012
Y0.74 Z0.0003
Y0.7373 Z0
Y0.731
G3 X0.1953 Y0.7223 I0.0087 J0
X0.1952 Y0.7571 Z-0.0028 I-0.0001 J0.0174
X0.1953 Y0.7223 Z-0.0056 I0 J-0.0174
X0.1952 Y0.7571 Z-0.0084 I-0.0001 J0.0174
X0.1953 Y0.7223 Z-0.0112 I0 J-0.0174
X0.1952 Y0.7571 Z-0.0139 I-0.0001 J0.0174
X0.1953 Y0.7223 Z-0.0167 I0 J-0.0174
X0.1952 Y0.7571 Z-0.0195 I-0.0001 J0.0174
X0.1953 Y0.7223 Z-0.0223 I0 J-0.0174
X0.1952 Y0.7571 Z-0.0251 I-0.0001 J0.0174
X0.1953 Y0.7223 Z-0.0279 I0 J-0.0174
X0.1952 Y0.7571 Z-0.0307 I-0.0001 J0.0174
X0.1953 Y0.7223 Z-0.0335 I0 J-0.0174
X0.1952 Y0.7571 Z-0.0362 I-0.0001 J0.0174
X0.1953 Y0.7223 Z-0.039 I0 J-0.0174
X0.1952 Y0.7571 Z-0.0418 I-0.0001 J0.0174
X0.1953 Y0.7223 Z-0.0446 I0 J-0.0174
X0.1952 Y0.7571 Z-0.0474 I-0.0001 J0.0174
X0.1953 Y0.7223 Z-0.0502 I0 J-0.0174
X0.1952 Y0.7571 Z-0.053 I-0.0001 J0.0174
X0.1953 Y0.7223 Z-0.0558 I0 J-0.0174
X0.1952 Y0.7571 Z-0.0586 I-0.0001 J0.0174
X0.1953 Y0.7223 Z-0.0613 I0 J-0.0174
X0.1952 Y0.7571 Z-0.0641 I-0.0001 J0.0174
X0.1953 Y0.7223 Z-0.0669 I0 J-0.0174
X0.1952 Y0.7571 Z-0.0697 I-0.0001 J0.0174
X0.1953 Y0.7223 Z-0.0725 I0 J-0.0174
X0.1952 Y0.7571 Z-0.0753 I-0.0001 J0.0174
X0.1953 Y0.7223 Z-0.0781 I0 J-0.0174
X0.1952 Y0.7571 Z-0.0809 I-0.0001 J0.0174
X0.1953 Y0.7223 Z-0.0836 I0 J-0.0174
X0.1952 Y0.7571 Z-0.0864 I-0.0001 J0.0174
X0.1953 Y0.7223 Z-0.0892 I0 J-0.0174
X0.1952 Y0.7571 Z-0.092 I-0.0001 J0.0174
X0.1953 Y0.7223 Z-0.0948 I0 J-0.0174
X0.1952 Y0.7571 Z-0.0976 I-0.0001 J0.0174
X0.1953 Y0.7223 Z-0.1004 I0 J-0.0174
X0.1952 Y0.7571 Z-0.1032 I-0.0001 J0.0174
X0.1953 Y0.7223 Z-0.106 I0 J-0.0174
X0.1952 Y0.7571 Z-0.1087 I-0.0001 J0.0174
X0.1953 Y0.7223 Z-0.1115 I0 J-0.0174
X0.1952 Y0.7571 Z-0.1143 I-0.0001 J0.0174
X0.1953 Y0.7223 Z-0.1171 I0 J-0.0174
X0.1952 Y0.7571 Z-0.1199 I-0.0001 J0.0174
X0.1953 Y0.7223 Z-0.1227 I0 J-0.0174
X0.1952 Y0.7571 Z-0.1255 I-0.0001 J0.0174
X0.1953 Y0.7223 Z-0.1283 I0 J-0.0174
X0.1952 Y0.7571 Z-0.131 I-0.0001 J0.0174
X0.1953 Y0.7223 Z-0.1338 I0 J-0.0174
X0.1952 Y0.7571 Z-0.1366 I-0.0001 J0.0174
X0.1953 Y0.7223 Z-0.1394 I0 J-0.0174
X0.1952 Y0.7571 Z-0.1422 I-0.0001 J0.0174
X0.1953 Y0.7223 Z-0.145 I0 J-0.0174
X0.1952 Y0.7571 Z-0.1478 I-0.0001 J0.0174
X0.1953 Y0.7223 Z-0.1506 I0 J-0.0174
X0.1952 Y0.7571 Z-0.1533 I-0.0001 J0.0174
X0.1953 Y0.7223 Z-0.1561 I0 J-0.0174
X0.1952 Y0.7571 Z-0.1589 I-0.0001 J0.0174
X0.1953 Y0.7223 Z-0.1617 I0 J-0.0174
X0.1952 Y0.7571 Z-0.1645 I-0.0001 J0.0174
X0.1953 Y0.7223 Z-0.1673 I0 J-0.0174
X0.1967 Y0.757 Z-0.17 I-0.0001 J0.0174
X0.1938 Y0.7224 I-0.0015 J-0.0173
X0.1967 Y0.757 I0.0014 J0.0173
X0.1874 Y0.7491 I-0.0007 J-0.0086
G1 X0.1868 Y0.7429
X0.1866 Y0.7401 Z-0.1697
X0.1863 Y0.7375 Z-0.1688
X0.1861 Y0.7351 Z-0.1673
X0.186 Y0.7331 Z-0.1653
X0.1859 Y0.7316 Z-0.1629
X0.1858 Y0.7307 Z-0.1603
X0.1857 Y0.7304 Z-0.1575
G0 Z0.2
X0.1881 Y0.2053
Z0.08
G1 Z0.0125 F24
X0.1882 Y0.205 Z0.0097
Y0.2041 Z0.0071
Y0.2026 Z0.0047
Y0.2006 Z0.0027
Y0.1982 Z0.0012
Y0.1956 Z0.0003
Y0.1928 Z0
Y0.1865
G3 X0.1969 Y0.1779 I0.0087 J0.0001
X0.1968 Y0.2125 Z-0.0028 I0 J0.0173
X0.1969 Y0.1779 Z-0.0056 I0.0001 J-0.0173
X0.1968 Y0.2125 Z-0.0084 I0 J0.0173
X0.1969 Y0.1779 Z-0.0112 I0.0001 J-0.0173
X0.1968 Y0.2125 Z-0.0139 I0 J0.0173
X0.1969 Y0.1779 Z-0.0167 I0.0001 J-0.0173
X0.1968 Y0.2125 Z-0.0195 I0 J0.0173
X0.1969 Y0.1779 Z-0.0223 I0.0001 J-0.0173
X0.1968 Y0.2125 Z-0.0251 I0 J0.0173
X0.1969 Y0.1779 Z-0.0279 I0.0001 J-0.0173
X0.1968 Y0.2125 Z-0.0307 I0 J0.0173
X0.1969 Y0.1779 Z-0.0335 I0.0001 J-0.0173
X0.1968 Y0.2125 Z-0.0362 I0 J0.0173
X0.1969 Y0.1779 Z-0.039 I0.0001 J-0.0173
X0.1968 Y0.2125 Z-0.0418 I0 J0.0173
X0.1969 Y0.1779 Z-0.0446 I0.0001 J-0.0173
X0.1968 Y0.2125 Z-0.0474 I0 J0.0173
X0.1969 Y0.1779 Z-0.0502 I0.0001 J-0.0173
X0.1968 Y0.2125 Z-0.053 I0 J0.0173
X0.1969 Y0.1779 Z-0.0558 I0.0001 J-0.0173
X0.1968 Y0.2125 Z-0.0586 I0 J0.0173
X0.1969 Y0.1779 Z-0.0613 I0.0001 J-0.0173
X0.1968 Y0.2125 Z-0.0641 I0 J0.0173
X0.1969 Y0.1779 Z-0.0669 I0.0001 J-0.0173
X0.1968 Y0.2125 Z-0.0697 I0 J0.0173
X0.1969 Y0.1779 Z-0.0725 I0.0001 J-0.0173
X0.1968 Y0.2125 Z-0.0753 I0 J0.0173
X0.1969 Y0.1779 Z-0.0781 I0.0001 J-0.0173
X0.1968 Y0.2125 Z-0.0809 I0 J0.0173
X0.1969 Y0.1779 Z-0.0836 I0.0001 J-0.0173
X0.1968 Y0.2125 Z-0.0864 I0 J0.0173
X0.1969 Y0.1779 Z-0.0892 I0.0001 J-0.0173
X0.1968 Y0.2125 Z-0.092 I0 J0.0173
X0.1969 Y0.1779 Z-0.0948 I0.0001 J-0.0173
X0.1968 Y0.2125 Z-0.0976 I0 J0.0173
X0.1969 Y0.1779 Z-0.1004 I0.0001 J-0.0173
X0.1968 Y0.2125 Z-0.1032 I0 J0.0173
X0.1969 Y0.1779 Z-0.106 I0.0001 J-0.0173
X0.1968 Y0.2125 Z-0.1087 I0 J0.0173
X0.1969 Y0.1779 Z-0.1115 I0.0001 J-0.0173
X0.1968 Y0.2125 Z-0.1143 I0 J0.0173
X0.1969 Y0.1779 Z-0.1171 I0.0001 J-0.0173
X0.1968 Y0.2125 Z-0.1199 I0 J0.0173
X0.1969 Y0.1779 Z-0.1227 I0.0001 J-0.0173
X0.1968 Y0.2125 Z-0.1255 I0 J0.0173
X0.1969 Y0.1779 Z-0.1283 I0.0001 J-0.0173
X0.1968 Y0.2125 Z-0.131 I0 J0.0173
X0.1969 Y0.1779 Z-0.1338 I0.0001 J-0.0173
X0.1968 Y0.2125 Z-0.1366 I0 J0.0173
X0.1969 Y0.1779 Z-0.1394 I0.0001 J-0.0173
X0.1968 Y0.2125 Z-0.1422 I0 J0.0173
X0.1969 Y0.1779 Z-0.145 I0.0001 J-0.0173
X0.1968 Y0.2125 Z-0.1478 I0 J0.0173
X0.1969 Y0.1779 Z-0.1506 I0.0001 J-0.0173
X0.1968 Y0.2125 Z-0.1533 I0 J0.0173
X0.1969 Y0.1779 Z-0.1561 I0.0001 J-0.0173
X0.1968 Y0.2125 Z-0.1589 I0 J0.0173
X0.1969 Y0.1779 Z-0.1617 I0.0001 J-0.0173
X0.1968 Y0.2125 Z-0.1645 I0 J0.0173
X0.1969 Y0.1779 Z-0.1673 I0.0001 J-0.0173
X0.1983 Y0.2124 Z-0.17 I0 J0.0173
X0.1954 Y0.178 I-0.0014 J-0.0172
X0.1983 Y0.2124 I0.0015 J0.0172
X0.1891 Y0.2046 I-0.0007 J-0.0085
G1 X0.1884 Y0.1984
X0.1882 Y0.1956 Z-0.1697
X0.188 Y0.193 Z-0.1688
X0.1878 Y0.1906 Z-0.1673
X0.1876 Y0.1887 Z-0.1653
X0.1875 Y0.1872 Z-0.1629
X0.1874 Y0.1862 Z-0.1603
Y0.1859 Z-0.1575
G0 Z0.2
X0.7326 Y0.2069
Z0.08
G1 Z0.0125 F24
Y0.2066 Z0.0097
Y0.2057 Z0.0071
Y0.2042 Z0.0047
Y0.2022 Z0.0027
Y0.1998 Z0.0012
Y0.1972 Z0.0003
X0.7327 Y0.1944 Z0
Y0.1882
G3 X0.7414 Y0.1796 I0.0086 J0
X0.7413 Y0.2142 Z-0.0028 I-0.0001 J0.0173
X0.7414 Y0.1796 Z-0.0056 I0 J-0.0173
X0.7413 Y0.2142 Z-0.0084 I-0.0001 J0.0173
X0.7414 Y0.1796 Z-0.0112 I0 J-0.0173
X0.7413 Y0.2142 Z-0.0139 I-0.0001 J0.0173
X0.7414 Y0.1796 Z-0.0167 I0 J-0.0173
X0.7413 Y0.2142 Z-0.0195 I-0.0001 J0.0173
X0.7414 Y0.1796 Z-0.0223 I0 J-0.0173
X0.7413 Y0.2142 Z-0.0251 I-0.0001 J0.0173
X0.7414 Y0.1796 Z-0.0279 I0 J-0.0173
X0.7413 Y0.2142 Z-0.0307 I-0.0001 J0.0173
X0.7414 Y0.1796 Z-0.0335 I0 J-0.0173
X0.7413 Y0.2142 Z-0.0362 I-0.0001 J0.0173
X0.7414 Y0.1796 Z-0.039 I0 J-0.0173
X0.7413 Y0.2142 Z-0.0418 I-0.0001 J0.0173
X0.7414 Y0.1796 Z-0.0446 I0 J-0.0173
X0.7413 Y0.2142 Z-0.0474 I-0.0001 J0.0173
X0.7414 Y0.1796 Z-0.0502 I0 J-0.0173
X0.7413 Y0.2142 Z-0.053 I-0.0001 J0.0173
X0.7414 Y0.1796 Z-0.0558 I0 J-0.0173
X0.7413 Y0.2142 Z-0.0586 I-0.0001 J0.0173
X0.7414 Y0.1796 Z-0.0613 I0 J-0.0173
X0.7413 Y0.2142 Z-0.0641 I-0.0001 J0.0173
X0.7414 Y0.1796 Z-0.0669 I0 J-0.0173
X0.7413 Y0.2142 Z-0.0697 I-0.0001 J0.0173
X0.7414 Y0.1796 Z-0.0725 I0 J-0.0173
X0.7413 Y0.2142 Z-0.0753 I-0.0001 J0.0173
X0.7414 Y0.1796 Z-0.0781 I0 J-0.0173
X0.7413 Y0.2142 Z-0.0809 I-0.0001 J0.0173
X0.7414 Y0.1796 Z-0.0836 I0 J-0.0173
X0.7413 Y0.2142 Z-0.0864 I-0.0001 J0.0173
X0.7414 Y0.1796 Z-0.0892 I0 J-0.0173
X0.7413 Y0.2142 Z-0.092 I-0.0001 J0.0173
X0.7414 Y0.1796 Z-0.0948 I0 J-0.0173
X0.7413 Y0.2142 Z-0.0976 I-0.0001 J0.0173
X0.7414 Y0.1796 Z-0.1004 I0 J-0.0173
X0.7413 Y0.2142 Z-0.1032 I-0.0001 J0.0173
X0.7414 Y0.1796 Z-0.106 I0 J-0.0173
X0.7413 Y0.2142 Z-0.1087 I-0.0001 J0.0173
X0.7414 Y0.1796 Z-0.1115 I0 J-0.0173
X0.7413 Y0.2142 Z-0.1143 I-0.0001 J0.0173
X0.7414 Y0.1796 Z-0.1171 I0 J-0.0173
X0.7413 Y0.2142 Z-0.1199 I-0.0001 J0.0173
X0.7414 Y0.1796 Z-0.1227 I0 J-0.0173
X0.7413 Y0.2142 Z-0.1255 I-0.0001 J0.0173
X0.7414 Y0.1796 Z-0.1283 I0 J-0.0173
X0.7413 Y0.2142 Z-0.131 I-0.0001 J0.0173
X0.7414 Y0.1796 Z-0.1338 I0 J-0.0173
X0.7413 Y0.2142 Z-0.1366 I-0.0001 J0.0173
X0.7414 Y0.1796 Z-0.1394 I0 J-0.0173
X0.7413 Y0.2142 Z-0.1422 I-0.0001 J0.0173
X0.7414 Y0.1796 Z-0.145 I0 J-0.0173
X0.7413 Y0.2142 Z-0.1478 I-0.0001 J0.0173
X0.7414 Y0.1796 Z-0.1506 I0 J-0.0173
X0.7413 Y0.2142 Z-0.1533 I-0.0001 J0.0173
X0.7414 Y0.1796 Z-0.1561 I0 J-0.0173
X0.7413 Y0.2142 Z-0.1589 I-0.0001 J0.0173
X0.7414 Y0.1796 Z-0.1617 I0 J-0.0173
X0.7413 Y0.2142 Z-0.1645 I-0.0001 J0.0173
X0.7414 Y0.1796 Z-0.1673 I0 J-0.0173
X0.7428 Y0.2141 Z-0.17 I-0.0001 J0.0173
X0.7399 Y0.1797 I-0.0015 J-0.0172
X0.7428 Y0.2141 I0.0014 J0.0172
X0.7335 Y0.2062 I-0.0007 J-0.0086
G1 X0.7329 Y0.2
X0.7326 Y0.1972 Z-0.1697
X0.7324 Y0.1946 Z-0.1688
X0.7322 Y0.1922 Z-0.1673
X0.7321 Y0.1903 Z-0.1653
X0.7319 Y0.1888 Z-0.1629
Y0.1879 Z-0.1603
X0.7318 Y0.1875 Z-0.1575
G0 Z0.6

(Slot1)
G0 X1.1027 Y4.557
Z0.6
Z0.2
G1 Z0.1 F10
G3 X0.4597 Y3.0049 Z0.095 I0.0784 J-0.9417
G2 X1.1026 Y4.557 Z0.0901 I0.7214 J0.6104
G3 X0.4597 Y3.0049 Z0.0851 I0.0785 J-0.9417
G2 X1.1026 Y4.557 Z0.0802 I0.7214 J0.6104
G3 X0.4597 Y3.0049 Z0.0752 I0.0785 J-0.9417
G2 X1.1026 Y4.557 Z0.0703 I0.7214 J0.6104
G3 X0.4597 Y3.0049 Z0.0653 I0.0785 J-0.9417
G2 X1.1026 Y4.557 Z0.0603 I0.7214 J0.6104
G3 X0.4597 Y3.0049 Z0.0554 I0.0785 J-0.9417
G2 X1.1026 Y4.557 Z0.0504 I0.7214 J0.6104
G3 X0.4597 Y3.0049 Z0.0455 I0.0785 J-0.9417
G2 X1.1026 Y4.557 Z0.0405 I0.7214 J0.6104
G3 X0.4597 Y3.0049 Z0.0356 I0.0785 J-0.9417
G2 X1.1026 Y4.557 Z0.0306 I0.7214 J0.6104
G3 X0.4597 Y3.0049 Z0.0256 I0.0785 J-0.9417
G2 X1.1026 Y4.557 Z0.0207 I0.7214 J0.6104
G3 X0.4597 Y3.0049 Z0.0157 I0.0785 J-0.9417
G2 X1.1026 Y4.557 Z0.0108 I0.7214 J0.6104
G3 X0.4597 Y3.0049 Z0.0058 I0.0785 J-0.9417
G2 X1.1026 Y4.557 Z0.0009 I0.7214 J0.6104
G3 X0.4597 Y3.0049 Z-0.0041 I0.0785 J-0.9417
G2 X1.1026 Y4.557 Z-0.0091 I0.7214 J0.6104
G3 X0.4597 Y3.0049 Z-0.014 I0.0785 J-0.9417
G2 X1.1026 Y4.557 Z-0.019 I0.7214 J0.6104
G3 X0.4597 Y3.0049 Z-0.0239 I0.0785 J-0.9417
G2 X1.1026 Y4.557 Z-0.0289 I0.7214 J0.6104
G3 X0.4597 Y3.0049 Z-0.0339 I0.0785 J-0.9417
G2 X1.1026 Y4.557 Z-0.0388 I0.7214 J0.6104
G3 X0.4597 Y3.0049 Z-0.0438 I0.0785 J-0.9417
G2 X1.1026 Y4.557 Z-0.0487 I0.7214 J0.6104
G3 X0.4597 Y3.0049 Z-0.0537 I0.0785 J-0.9417
G2 X1.1026 Y4.557 Z-0.0586 I0.7214 J0.6104
G3 X0.4597 Y3.0049 Z-0.0636 I0.0785 J-0.9417
G2 X1.1026 Y4.557 Z-0.0686 I0.7214 J0.6104
G3 X0.4597 Y3.0049 Z-0.0735 I0.0785 J-0.9417
G2 X1.1026 Y4.557 Z-0.0785 I0.7214 J0.6104
G3 X0.4597 Y3.0049 Z-0.0834 I0.0785 J-0.9417
G2 X1.1026 Y4.557 Z-0.0884 I0.7214 J0.6104
G3 X0.4597 Y3.0049 Z-0.0933 I0.0785 J-0.9417
G2 X1.1026 Y4.557 Z-0.0983 I0.7214 J0.6104
G3 X0.4597 Y3.0049 Z-0.1033 I0.0785 J-0.9417
G2 X1.1026 Y4.557 Z-0.1082 I0.7214 J0.6104
G3 X0.4597 Y3.0049 Z-0.1132 I0.0785 J-0.9417
G2 X1.1026 Y4.557 Z-0.1181 I0.7214 J0.6104
G3 X0.4597 Y3.0049 Z-0.1231 I0.0785 J-0.9417
G2 X1.1026 Y4.557 Z-0.128 I0.7214 J0.6104
G3 X0.4597 Y3.0049 Z-0.133 I0.0785 J-0.9417
G2 X1.1026 Y4.557 Z-0.138 I0.7214 J0.6104
G3 X0.4597 Y3.0049 Z-0.1429 I0.0785 J-0.9417
G2 X1.1026 Y4.557 Z-0.1479 I0.7214 J0.6104
G3 X0.4597 Y3.0049 I0.0785 J-0.9417 F24
G0 X0.4598 Y3.005 Z0.6
M9
G28 G91 Z0
G90
G28 G91 X0 Y0
G90
M30
%
