%
(hang contour)
(T2 D=0.2362 CR=0 - ZMIN=-0.14 - flat end mill)
G90
G17
G20
G28 G91 Z0
G90

(2D Contour1)
T2 M6
S24000 M3
G17 G90
G54
M7
G0 X4.8314 Y-0.122
Z0.6
G0 Z0.2
G1 Z0.0436 F15
X4.8313 Y-0.1218 Z0.0399 F35
X4.8308 Y-0.121 Z0.0363
X4.8301 Y-0.1198 Z0.0329
X4.8292 Y-0.1181 Z0.0297
X4.828 Y-0.116 Z0.0269
X4.8266 Y-0.1136 Z0.0245
X4.825 Y-0.1108 Z0.0226
X4.8233 Y-0.1078 Z0.0212
X4.8216 Y-0.1047 Z0.0203
X4.8197 Y-0.1015 Z0.02
X4.8081 Y-0.0809
G3 X4.7759 Y-0.0721 I-0.0205 J-0.0117
G2 X4.6012 Y-0.1182 Z0.0199 I-0.1747 J0.3083 F15
G1 X4.1002 Y-0.1181 Z0.0195
G2 X3.7469 Y0.2097 Z0.0191 I0 J0.3543
G1 X3.6701 Y1.2334 Z0.0183
G2 X3.7079 Y1.4211 Z0.0181 I0.3533 J0.0265
G3 X3.3492 Y2.3515 Z0.0173 I-0.5961 J0.3045
X2.4636 Y1.8929 Z0.0164 I-0.2374 J-0.6259
G2 X2.4603 Y1.8821 I-0.1142 J0.0295
G1 X2.4573 Y1.8734
G2 X1.7204 Y1.6051 Z0.0157 I-0.481 J0.175
G1 X-0.0295 Y2.6154 Z0.0142
G2 X0.0591 Y2.9461 Z0.0138 I0.0886 J0.1535
G1 X2.8756 Y2.946 Z0.0117
G3 X2.9938 Y3.0642 Z0.0115 I0 J0.1182
G1 X2.9937 Y4.5602 Z0.0104
G2 X3.348 Y4.9145 Z0.01 I0.3543 J0
G1 X4.6012 Y4.9146 Z0.009
G2 X4.9556 Y4.5602 Z0.0086 I0 J-0.3544
G1 X4.9555 Y0.2362 Z0.0053
G2 X4.6012 Y-0.1181 Z0.0049 I-0.3543 J0
G1 X4.1002 Z0.0045
G2 X3.7469 Y0.2097 Z0.0041 I0 J0.3543
G1 X3.6701 Y1.2334 Z0.0033
G2 X3.7079 Y1.4211 Z0.0031 I0.3533 J0.0265
G3 X3.3492 Y2.3515 Z0.0023 I-0.5961 J0.3045
X2.4636 Y1.8929 Z0.0014 I-0.2374 J-0.6259
G2 X2.4603 Y1.8821 I-0.1142 J0.0295
G1 X2.4573 Y1.8734
G2 X1.7204 Y1.6051 Z0.0007 I-0.481 J0.175
G1 X-0.0295 Y2.6154 Z-0.0008
G2 X0.0591 Y2.9461 Z-0.0012 I0.0886 J0.1535
G1 X2.8756 Y2.946 Z-0.0033
G3 X2.9938 Y3.0642 Z-0.0035 I0 J0.1182
G1 X2.9937 Y4.5602 Z-0.0046
G2 X3.348 Y4.9145 Z-0.005 I0.3543 J0
G1 X4.6012 Y4.9146 Z-0.006
G2 X4.9556 Y4.5602 Z-0.0064 I0 J-0.3544
G1 X4.9555 Y0.2362 Z-0.0097
G2 X4.6012 Y-0.1181 Z-0.0101 I-0.3543 J0
G1 X4.1002 Z-0.0105
G2 X3.7469 Y0.2097 Z-0.0109 I0 J0.3543
G1 X3.6701 Y1.2334 Z-0.0117
G2 X3.7079 Y1.4211 Z-0.0119 I0.3533 J0.0265
G3 X3.3492 Y2.3515 Z-0.0127 I-0.5961 J0.3045
X2.4636 Y1.8929 Z-0.0136 I-0.2374 J-0.6259
G2 X2.4603 Y1.8821 I-0.1142 J0.0295
G1 X2.4573 Y1.8734
G2 X1.7204 Y1.6051 Z-0.0143 I-0.481 J0.175
G1 X-0.0295 Y2.6154 Z-0.0158
G2 X0.0591 Y2.9461 Z-0.0162 I0.0886 J0.1535
G1 X2.8756 Y2.946 Z-0.0183
G3 X2.9938 Y3.0642 Z-0.0185 I0 J0.1182
G1 X2.9937 Y4.5602 Z-0.0196
G2 X3.348 Y4.9145 Z-0.02 I0.3543 J0
G1 X4.6012 Y4.9146 Z-0.021
G2 X4.9556 Y4.5602 Z-0.0214 I0 J-0.3544
G1 X4.9555 Y0.2362 Z-0.0247
G2 X4.6012 Y-0.1181 Z-0.0251 I-0.3543 J0
G1 X4.1002 Z-0.0255
G2 X3.7469 Y0.2097 Z-0.0259 I0 J0.3543
G1 X3.6701 Y1.2334 Z-0.0267
G2 X3.7079 Y1.4211 Z-0.0269 I0.3533 J0.0265
G3 X3.3492 Y2.3515 Z-0.0277 I-0.5961 J0.3045
X2.4636 Y1.8929 Z-0.0286 I-0.2374 J-0.6259
G2 X2.4603 Y1.8821 I-0.1142 J0.0295
G1 X2.4573 Y1.8734
G2 X1.7204 Y1.6051 Z-0.0293 I-0.481 J0.175
G1 X-0.0295 Y2.6154 Z-0.0308
G2 X0.0591 Y2.9461 Z-0.0312 I0.0886 J0.1535
G1 X2.8756 Y2.946 Z-0.0333
G3 X2.9938 Y3.0642 Z-0.0335 I0 J0.1182
G1 X2.9937 Y4.5602 Z-0.0346
G2 X3.348 Y4.9145 Z-0.035 I0.3543 J0
G1 X4.6012 Y4.9146 Z-0.036
G2 X4.9556 Y4.5602 Z-0.0364 I0 J-0.3544
G1 X4.9555 Y0.2362 Z-0.0397
G2 X4.6012 Y-0.1181 Z-0.0401 I-0.3543 J0
G1 X4.1002 Z-0.0405
G2 X3.7469 Y0.2097 Z-0.0409 I0 J0.3543
G1 X3.6701 Y1.2334 Z-0.0417
G2 X3.7079 Y1.4211 Z-0.0419 I0.3533 J0.0265
G3 X3.3492 Y2.3515 Z-0.0427 I-0.5961 J0.3045
X2.4636 Y1.8929 Z-0.0436 I-0.2374 J-0.6259
G2 X2.4603 Y1.8821 I-0.1142 J0.0295
G1 X2.4573 Y1.8734
G2 X1.7204 Y1.6051 Z-0.0443 I-0.481 J0.175
G1 X-0.0295 Y2.6154 Z-0.0458
G2 X0.0591 Y2.9461 Z-0.0462 I0.0886 J0.1535
G1 X2.8756 Y2.946 Z-0.0483
G3 X2.9938 Y3.0642 Z-0.0485 I0 J0.1182
G1 X2.9937 Y4.5602 Z-0.0496
G2 X3.348 Y4.9145 Z-0.05 I0.3543 J0
G1 X4.6012 Y4.9146 Z-0.051
G2 X4.9556 Y4.5602 Z-0.0514 I0 J-0.3544
G1 X4.9555 Y0.2362 Z-0.0547
G2 X4.6012 Y-0.1181 Z-0.0551 I-0.3543 J0
G1 X4.1002 Z-0.0555
G2 X3.7469 Y0.2097 Z-0.0559 I0 J0.3543
G1 X3.6701 Y1.2334 Z-0.0567
G2 X3.7079 Y1.4211 Z-0.0569 I0.3533 J0.0265
G3 X3.3492 Y2.3515 Z-0.0577 I-0.5961 J0.3045
X2.4636 Y1.8929 Z-0.0586 I-0.2374 J-0.6259
G2 X2.4603 Y1.8821 I-0.1142 J0.0295
G1 X2.4573 Y1.8734
G2 X1.7204 Y1.6051 Z-0.0593 I-0.481 J0.175
G1 X-0.0295 Y2.6154 Z-0.0608
G2 X0.0591 Y2.9461 Z-0.0612 I0.0886 J0.1535
G1 X2.8756 Y2.946 Z-0.0633
G3 X2.9938 Y3.0642 Z-0.0635 I0 J0.1182
G1 X2.9937 Y4.5602 Z-0.0646
G2 X3.348 Y4.9145 Z-0.065 I0.3543 J0
G1 X4.6012 Y4.9146 Z-0.066
G2 X4.9556 Y4.5602 Z-0.0664 I0 J-0.3544
G1 X4.9555 Y0.2362 Z-0.0697
G2 X4.6012 Y-0.1181 Z-0.0701 I-0.3543 J0
G1 X4.1002 Z-0.0705
G2 X3.7469 Y0.2097 Z-0.0709 I0 J0.3543
G1 X3.6701 Y1.2334 Z-0.0717
G2 X3.7079 Y1.4211 Z-0.0719 I0.3533 J0.0265
G3 X3.3492 Y2.3515 Z-0.0727 I-0.5961 J0.3045
X2.4636 Y1.8929 Z-0.0736 I-0.2374 J-0.6259
G2 X2.4603 Y1.8821 I-0.1142 J0.0295
G1 X2.4573 Y1.8734
G2 X1.7204 Y1.6051 Z-0.0743 I-0.481 J0.175
G1 X-0.0295 Y2.6154 Z-0.0758
G2 X0.0591 Y2.9461 Z-0.0762 I0.0886 J0.1535
G1 X2.8756 Y2.946 Z-0.0783
G3 X2.9938 Y3.0642 Z-0.0785 I0 J0.1182
G1 X2.9937 Y4.5602 Z-0.0796
G2 X3.348 Y4.9145 Z-0.08 I0.3543 J0
G1 X4.6012 Y4.9146 Z-0.081
G2 X4.9556 Y4.5602 Z-0.0814 I0 J-0.3544
G1 X4.9555 Y0.2362 Z-0.0847
G2 X4.6012 Y-0.1181 Z-0.0851 I-0.3543 J0
G1 X4.1002 Z-0.0855
G2 X3.7469 Y0.2097 Z-0.0859 I0 J0.3543
G1 X3.6701 Y1.2334 Z-0.0867
G2 X3.7079 Y1.4211 Z-0.0869 I0.3533 J0.0265
G3 X3.3492 Y2.3515 Z-0.0877 I-0.5961 J0.3045
X2.4636 Y1.8929 Z-0.0886 I-0.2374 J-0.6259
G2 X2.4603 Y1.8821 I-0.1142 J0.0295
G1 X2.4573 Y1.8734
G2 X1.7204 Y1.6051 Z-0.0893 I-0.481 J0.175
G1 X0.2485 Y2.4549 Z-0.0906
Z-0.09
X-0.0295 Y2.6154
G2 X-0.0981 Y2.687 I0.0886 J0.1535
G1 Z-0.0909
G2 X0.0591 Y2.9462 Z-0.0912 I0.1572 J0.0819
G1 X1.6836 Y2.946 Z-0.0924
Z-0.09
X2.0998
Z-0.0927
X2.8756 Z-0.0933
G3 X2.9938 Y3.0642 Z-0.0935 I0 J0.1182
G1 X2.9937 Y3.6014 Z-0.0939
Z-0.09
Y4.0176
Z-0.0942
Y4.5602 Z-0.0946
G2 X3.348 Y4.9145 Z-0.095 I0.3543 J0
G1 X4.1184 Y4.9146 Z-0.0956
Z-0.09
X4.5346
Z-0.0959
X4.6012 Z-0.096
G2 X4.9556 Y4.5602 Z-0.0964 I0 J-0.3544
G1 X4.9555 Y3.3138 Z-0.0974
Z-0.09
Y2.8975
Z-0.0977
Y1.2135 Z-0.099
Z-0.09
Y0.7973
Z-0.0993
Y0.2362 Z-0.0997
G2 X4.6012 Y-0.1181 Z-0.1001 I-0.3543 J0
G1 X4.1002 Z-0.1005
G2 X3.7696 Y0.1087 Z-0.1008 I0 J0.3543
G1 Z-0.09
G2 X3.7469 Y0.2097 I0.3306 J0.1275
G1 X3.7234 Y0.5226
Z-0.1012
X3.6701 Y1.2334 Z-0.1017
G2 X3.7079 Y1.4211 Z-0.1019 I0.3533 J0.0265
G3 X3.6841 Y2.0727 Z-0.1024 I-0.5961 J0.3045
G1 Z-0.09
G3 X3.3683 Y2.3439 I-0.5723 J-0.3471
G1 X3.3682 Y2.3438 Z-0.1027
G3 X2.4638 Y1.8929 Z-0.1036 I-0.2564 J-0.6182
G2 X2.4604 Y1.8821 I-0.1144 J0.0295
G1 X2.4573 Y1.8734
G2 X2.1682 Y1.5739 Z-0.1039 I-0.481 J0.175
G1 Z-0.09
G2 X1.7523 Y1.5882 I-0.1919 J0.4745
G1 Z-0.1042
G2 X1.7204 Y1.6051 Z-0.1043 I0.224 J0.4602
G1 X0.2485 Y2.4549 Z-0.1056
Z-0.09
X-0.0295 Y2.6154
G2 X-0.0981 Y2.687 I0.0886 J0.1535
G1 Z-0.1059
G2 X0.0591 Y2.9462 Z-0.1062 I0.1572 J0.0819
G1 X1.6836 Y2.946 Z-0.1074
Z-0.09
X2.0998
Z-0.1077
X2.8756 Z-0.1083
G3 X2.9938 Y3.0642 Z-0.1085 I0 J0.1182
G1 X2.9937 Y3.6014 Z-0.1089
Z-0.09
Y4.0176
Z-0.1092
Y4.5602 Z-0.1096
G2 X3.348 Y4.9145 Z-0.11 I0.3543 J0
G1 X4.1184 Y4.9146 Z-0.1106
Z-0.09
X4.5346
Z-0.1109
X4.6012 Z-0.111
G2 X4.9556 Y4.5602 Z-0.1114 I0 J-0.3544
G1 X4.9555 Y3.3138 Z-0.1124
Z-0.09
Y2.8975
Z-0.1127
Y1.2135 Z-0.114
Z-0.09
Y0.7973
Z-0.1143
Y0.2362 Z-0.1147
G2 X4.6012 Y-0.1181 Z-0.1151 I-0.3543 J0
G1 X4.1002 Z-0.1155
G2 X3.7696 Y0.1087 Z-0.1158 I0 J0.3543
G1 Z-0.09
G2 X3.7469 Y0.2097 I0.3306 J0.1275
G1 X3.7234 Y0.5226
Z-0.1162
X3.6701 Y1.2334 Z-0.1167
G2 X3.7079 Y1.4211 Z-0.1169 I0.3533 J0.0265
G3 X3.6841 Y2.0727 Z-0.1174 I-0.5961 J0.3045
G1 Z-0.09
G3 X3.3683 Y2.3439 I-0.5723 J-0.3471
G1 X3.3682 Y2.3438 Z-0.1177
G3 X2.4638 Y1.8929 Z-0.1186 I-0.2564 J-0.6182
G2 X2.4604 Y1.8821 I-0.1144 J0.0295
G1 X2.4573 Y1.8734
G2 X2.1682 Y1.5739 Z-0.1189 I-0.481 J0.175
G1 Z-0.09
G2 X1.7523 Y1.5882 I-0.1919 J0.4745
G1 Z-0.1192
G2 X1.7204 Y1.6051 Z-0.1193 I0.224 J0.4602
G1 X0.2485 Y2.4549 Z-0.1206
Z-0.09
X-0.0295 Y2.6154
G2 X-0.0981 Y2.687 I0.0886 J0.1535
G1 Z-0.1209
G2 X0.0591 Y2.9462 Z-0.1212 I0.1572 J0.0819
G1 X1.6836 Y2.946 Z-0.1224
Z-0.09
X2.0998
Z-0.1227
X2.8756 Z-0.1233
G3 X2.9938 Y3.0642 Z-0.1235 I0 J0.1182
G1 X2.9937 Y3.6014 Z-0.1239
Z-0.09
Y4.0176
Z-0.1242
Y4.5602 Z-0.1246
G2 X3.348 Y4.9145 Z-0.125 I0.3543 J0
G1 X4.1184 Y4.9146 Z-0.1256
Z-0.09
X4.5346
Z-0.1259
X4.6012 Z-0.126
G2 X4.9556 Y4.5602 Z-0.1264 I0 J-0.3544
G1 X4.9555 Y3.3138 Z-0.1274
Z-0.09
Y2.8975
Z-0.1277
Y1.2135 Z-0.129
Z-0.09
Y0.7973
Z-0.1293
Y0.2362 Z-0.1297
G2 X4.6012 Y-0.1181 Z-0.1301 I-0.3543 J0
G1 X4.1002 Z-0.1305
G2 X3.7696 Y0.1087 Z-0.1308 I0 J0.3543
G1 Z-0.09
G2 X3.7469 Y0.2097 I0.3306 J0.1275
G1 X3.7234 Y0.5226
Z-0.1312
X3.6701 Y1.2334 Z-0.1317
G2 X3.7079 Y1.4211 Z-0.1319 I0.3533 J0.0265
G3 X3.6841 Y2.0727 Z-0.1324 I-0.5961 J0.3045
G1 Z-0.09
G3 X3.3683 Y2.3439 I-0.5723 J-0.3471
G1 X3.3682 Y2.3438 Z-0.1327
G3 X2.4638 Y1.8929 Z-0.1336 I-0.2564 J-0.6182
G2 X2.4604 Y1.8821 I-0.1144 J0.0295
G1 X2.4573 Y1.8734
G2 X2.1682 Y1.5739 Z-0.1339 I-0.481 J0.175
G1 Z-0.09
G2 X1.7523 Y1.5882 I-0.1919 J0.4745
G1 Z-0.1342
G2 X1.7204 Y1.6051 Z-0.1343 I0.224 J0.4602
G1 X0.2485 Y2.4549 Z-0.1356
Z-0.09
X-0.0295 Y2.6154
G2 X-0.0981 Y2.687 I0.0886 J0.1535
G1 Z-0.1359
G2 X0.0591 Y2.9462 Z-0.1362 I0.1572 J0.0819
G1 X1.6836 Y2.946 Z-0.1374
Z-0.09
X2.0998
Z-0.1377
X2.8756 Z-0.1383
G3 X2.9938 Y3.0642 Z-0.1385 I0 J0.1182
G1 X2.9937 Y3.6014 Z-0.1389
Z-0.09
Y4.0176
Z-0.1392
Y4.5602 Z-0.1396
G2 X3.3076 Y4.9122 Z-0.14 I0.3543 J0
X3.348 Y4.9145 I0.0404 J-0.352 F35
G1 X4.1184 Y4.9146
Z-0.09
X4.5346
Z-0.14 F15
X4.6012 F35
G2 X4.9556 Y4.5602 I0 J-0.3544
G1 X4.9555 Y3.3138
Z-0.09
Y2.8975
Z-0.14 F15
Y1.2135 F35
Z-0.09
Y0.7973
Z-0.14 F15
Y0.2362 F35
G2 X4.6012 Y-0.1181 I-0.3543 J0
G1 X4.1002
G2 X3.7696 Y0.1087 I0 J0.3543
G1 Z-0.09
G2 X3.7469 Y0.2097 I0.3306 J0.1275
G1 X3.7234 Y0.5226
Z-0.14 F15
X3.6701 Y1.2334 F35
G2 X3.7079 Y1.4211 I0.3533 J0.0265
G3 X3.6841 Y2.0727 I-0.5961 J0.3045
G1 Z-0.09
G3 X3.3683 Y2.3439 I-0.5723 J-0.3471
G1 X3.3682 Y2.3438 Z-0.14 F15
G3 X2.4638 Y1.8929 I-0.2564 J-0.6182 F35
G2 X2.4604 Y1.8821 I-0.1144 J0.0295
G1 X2.4573 Y1.8734
G2 X2.1682 Y1.5739 I-0.481 J0.175
G1 Z-0.09
G2 X1.7523 Y1.5882 I-0.1919 J0.4745
G1 Z-0.14 F15
G2 X1.7204 Y1.6051 I0.224 J0.4602 F35
G1 X0.2485 Y2.4549
Z-0.09
X-0.0295 Y2.6154
G2 X-0.0981 Y2.687 I0.0886 J0.1535
G1 Z-0.14 F15
G2 X0.0591 Y2.9462 I0.1572 J0.0819 F35
G1 X1.6836 Y2.946
Z-0.09
X2.0998
Z-0.14 F15
X2.8756 F35
G3 X2.9938 Y3.0642 I0 J0.1182
G1 X2.9937 Y3.6014
Z-0.09
Y4.0176
Z-0.14 F15
Y4.5602 F35
G2 X3.3076 Y4.9122 I0.3543 J0
G3 X3.3284 Y4.9384 I-0.0027 J0.0235
G1 X3.3256 Y4.9619
X3.3252 Y4.9656 Z-0.1397
X3.3248 Y4.9691 Z-0.1388
X3.3244 Y4.9725 Z-0.1374
X3.324 Y4.9757 Z-0.1355
X3.3237 Y4.9785 Z-0.1331
X3.3234 Y4.9809 Z-0.1303
X3.3232 Y4.9828 Z-0.1271
X3.3231 Y4.9842 Z-0.1237
X3.323 Y4.9851 Z-0.1201
X3.3229 Y4.9853 Z-0.1164
G0 Z0.6
M9
G28 G91 Z0
G90
G28 G91 X0 Y0
G90
M30
%
